public/characters/giko_basketball/front-standing.svg

<svg height="184" width="160" xmlns="http://www.w3.org/2000/svg"><path d="M.4-60h3.9l1.2.55 3.9-8.6 3.85 8.6L14.5-60l3.15 3.05 1.15 1.05-.45.45.1.1c1.4 1.367 2.183 2.883 2.35 4.55v.6c0 1.1-.267 2.133-.8 3.1l-.25.45-1.4 1.7.15.15-.3.25-3.25.9v4.7l-3.25.7-3.1.9.65 1.6 3.3-1.25 3-.6c1.033 0 1.75.2 2.15.6.533.533.8 1.2.8 2 0 .733-.25 1.35-.75 1.85-.7.7-2.067 1.117-4.1 1.25l-1.25.05.35 1.5 1.5-.05-.05 2.75-1.5 1.25v12.25l-.85 4.6h-1.5V-3c0 .467-.15.85-.45 1.15-.367.367-.9.55-1.6.55-.767 0-1.317-.183-1.65-.55-.3-.3-.433-.683-.4-1.15v-6.55h-1.6l-2.35-3.5H.55L-3-9.55V-3c0 .467-.15.85-.45 1.15-.367.367-.9.55-1.6.55-.733 0-1.283-.183-1.65-.55-.3-.3-.433-.683-.4-1.15v-6.55h-1.55l-1.7-1.1-1.75-3.9v-3.9l.45-.4c.5-.4.95-.917 1.35-1.55l-1.25-1-.7.95.4-10.95 1.75-12.8.4.35.75-.7-1-1.1c-1.033-1.267-1.533-2.65-1.5-4.15l.05-1c.233-1.533 1.05-2.95 2.45-4.25l-.75-.75.5-3.95.65.3 3.85-8.6 3.85 8.6L.4-60m10.1 14.7v1.9h1.3v-3.25h-1.15v-9.45h-6.2v3.85l-.05 1.1-.45 2.45-1 2.05H2v3.3h1.35v-1.95h7.15m-6.05-1.35.5-.9.9-3.55v-.05l.05-.35v-3.25h3.4v8.1H4.45m14.3-9.2-1.1-1.1 1.1 1.1M5.5-37.95C4.8-38.65 3.717-39 2.25-39l-4 .75-3.1.9.65 1.6L-.9-37l3-.6c1.033 0 1.75.2 2.15.6.533.533.8 1.2.8 2 0 .733-.25 1.35-.75 1.85-.7.7-2.05 1.117-4.05 1.25l-1.3.05.35 1.5c2.633-.033 4.6-.55 5.9-1.55l.45-.35c.667-.667 1-1.617 1-2.85-.033-1.2-.417-2.15-1.15-2.85M-7.15-43.6l.75-1.55v-1.35h-1.5v1.45h.55l-.55 1.45h.75M-5-45.05h.55L-5-43.6h.75l.75-1.55v-1.35H-5v1.45" style="fill:#fff" transform="matrix(2 0 0 2 79.341 142)"/><path d="m87.941 22 10.2-22 10.2 22-2.5 1.1-7.7-17.2-7.8 17.2-2.4-1.1m29 8.2.5-.6c3.4 3.134 5.266 6.734 5.6 10.8v1.2c0 2.534-.6 4.9-1.8 7.1-.934 1.666-2.2 3.266-3.8 4.8l-1.4-1.4 2.8-3.4.5-.9c1.066-1.934 1.6-4 1.6-6.2v-1.2c-.334-3.334-1.9-6.366-4.7-9.1l-.2-.2.9-.9m-7.7 33.9 1.5-.1c2.934 0 5.1.7 6.5 2.1 1.466 1.4 2.2 3.3 2.2 5.7 0 2.466-.666 4.366-2 5.7l-.8.7c-2.066 1.6-5 2.6-8.8 3l-3 .1-.7-3 2.5-.1c4.066-.266 6.8-1.1 8.2-2.5 1-1 1.5-2.234 1.5-3.7 0-1.6-.534-2.934-1.6-4-.8-.8-2.234-1.2-4.3-1.2l-6 1.2-6.6 2.5-1.3-3.2 6.2-1.8 6.5-1.4m-6.2 58.8v13.2c0 1.666-.534 3.034-1.6 4.1-1.2 1.2-3.034 1.8-5.5 1.8-2.6 0-4.5-.6-5.7-1.8-1.066-1.066-1.6-2.434-1.6-4.1v-13.2h3.2V136c-.066.934.2 1.7.8 2.3.666.734 1.766 1.1 3.3 1.1 1.4 0 2.466-.366 3.2-1.1.6-.6.9-1.366.9-2.3v-13.1h3m-29.7 0h3v13.2c0 1.666-.534 3.034-1.6 4.1-1.2 1.2-3.034 1.8-5.5 1.8-2.534 0-4.4-.6-5.6-1.8-1.134-1.066-1.666-2.434-1.6-4.1v-13.2h3.1V136c-.066.934.2 1.7.8 2.3.734.734 1.834 1.1 3.3 1.1 1.4 0 2.466-.366 3.2-1.1.6-.6.9-1.366.9-2.3v-13.1m-18.2-17.8c-.934.6-2 .9-3.2.9-1.334 0-3.134-.734-5.4-2.2l-3.8-1.3c-1.134 0-2 .366-2.6 1.1l-1.2 1.9-2.7-1.5 2.4-3.3c1.134-1.066 2.434-1.6 3.9-1.6 1.466 0 3 .534 4.6 1.6 2.2 1.134 3.9 1.7 5.1 1.7.8 0 1.666-.434 2.6-1.3l1.4-1.9 2.5 2c-.8 1.266-1.7 2.3-2.7 3.1l-.9.8m4-51.5-1.2-1.4c-2.466-2.934-3.666-6.2-3.6-9.8l.1-2c.466-3.734 2.3-7.066 5.5-10l1.5 1.5c-2.8 2.6-4.434 5.434-4.9 8.5l-.1 2c-.066 3 .934 5.766 3 8.3l2 2.2-1.5 1.4-.8-.7m1.8-31.1-1.1-.5 10.1-22 10.2 22-2.5 1.1-7.7-17.2-7.7 17.2-1.3-.6m22.4 32.7v-6.5h1.9l2-4.1.9-4.9.1-2.2v-7.7h12.4v18.9h2.3v6.5h-2.6v-3.9h-14.3v3.9h-2.7m14.6-22.7v-.1h-6.9v6.5l-.1.7v.1l-1.8 7.1-1 1.8-.1.1h9.9V32.5m-7.6 33.6c1.466 1.4 2.234 3.3 2.3 5.7 0 2.466-.666 4.366-2 5.7l-.9.7c-2.6 2-6.534 3.034-11.8 3.1l-.7-3 2.6-.1c4-.266 6.7-1.1 8.1-2.5 1-1 1.5-2.234 1.5-3.7 0-1.6-.534-2.934-1.6-4-.8-.8-2.234-1.2-4.3-1.2l-6 1.2-6.6 2.5-1.3-3.2 6.2-1.8 8-1.5c2.934 0 5.1.7 6.5 2.1m-21-14.2V49h3v2.7l-1.5 3.1h-1.5l1.1-2.9h-1.1m-4.3 2.9h-1.5l1.1-2.9h-1.1V49h3v2.7l-1.5 3.1"/><path d="M.4-60h3.9m8.4 33.6v9.45m0 0v2.8m4.95-42.8 1.1 1.1" style="fill:none;fill-rule:nonzero;stroke:#000;stroke-width:1px" transform="matrix(2 0 0 2 79.341 142)"/><path d="m57.264 65.446 12.391-9.819 9.154.309c12.992 13.066 17.822 12.11 24.374.498l5.074.975 1.195 8.333c-.402-.566-1.951.163-2.184-.338-2.55-5.487-4.887-5.474-7.192 2.271-1.51 6.646-.594 16.109 4.522 16.906 1.536-.695 2.388-2.414 2.697-4.949.086 1.365 1.794-.528 1.896.766.331 4.24-.916 11.336-.848 14.95l-54.066-.733c-.689-12.748-.236-16.421 2.987-29.169Zm19.174-5.408c-4.887 0-8.854 5.376-8.854 11.997 0 6.622 3.967 11.997 8.854 11.997 4.886 0 8.853-5.375 8.853-11.997 0-6.621-3.967-11.997-8.853-11.997Z" style="fill:#c7c7c7;stroke:#000;stroke-width:2px;stroke-linecap:butt;stroke-miterlimit:1.5"/><path d="m91.702 66.897 3.334.161 1.189 2.903-.456 6.108-2.619 1.362 2.175 2.339-.143 7.072-2.087 1.682-2.984-.196-1.244-2.563.196-6.133 3.716-2.201-2.61-2.283-.163-6.413 1.696-1.838Z" style="fill:none;stroke:#ffdb69;stroke-width:2.5px;stroke-linecap:butt;stroke-miterlimit:1.5" transform="translate(-.909 3.635)"/><circle cx="1505.03" cy="474.652" r="16.705" style="fill:#b05d02;stroke:#000;stroke-width:1px;stroke-miterlimit:1.5" transform="matrix(-1.00234 0 0 1.00234 1608.827 -405.118)"/><path d="M1536.52 481.049c-1.65 4.247 8.5 13.966 19.94 10.966" style="fill:none;stroke:#000;stroke-width:.7px;stroke-miterlimit:1.5" transform="matrix(-1.43518 0 0 1.43518 2318.44 -629.484)"/><path d="M1549.1 476.555c5.86 10.098 1.61 28.004-8.86 21.659-4.16-1.215-8.17-10.38-5.9-11.999 1.35 8.703 12.47 15.682 14.48 3.246.88-5.397-13.81-9.565-6.69-12.952 2.38-.923 4.69-.74 6.97.046Z" style="fill:none;stroke:#000;stroke-width:.7px;stroke-miterlimit:1.5" transform="matrix(-1.43518 0 0 1.43518 2318.44 -629.484)"/><path d="M1552.73 496.807c.33-5.022.57-5.887 3.73-11.166" style="fill:none;stroke:#000;stroke-width:.7px;stroke-miterlimit:1.5" transform="matrix(-1.43518 0 0 1.43518 2318.44 -629.484)"/><path d="M70.252 68.803c4.524-2.168 9.048-3.314 13.572-3.526 3.84.403 5.331 1.406 6.318 3.14 1.162 2.041 1.304 5.054-.974 8.7-3.395 1.558-7.188 2.319-11.421 2.2" style="fill:#fff;stroke:#000;stroke-width:3px;stroke-linecap:butt;stroke-miterlimit:1.5"/><g id="gikopoipoi_eyes_open"><path d="M1.35 0h.2l.55.1.45.35c.3.3.45.633.45 1L2.55 2.6c-.3.267-.633.4-1 .4l-.8-.2-.25-.2-.45-.7v-.15L0 1.45v-.1c.033-.333.2-.633.5-.9l.25-.2C.917.117 1.1.033 1.3 0h.05m.45.85L1.55.8C1.317.767 1.133.833 1 1c-.133.1-.2.25-.2.45v.15l.15.45H1l.05.05.2.1.3.05.55-.2.15-.6-.05-.3L2.1 1 2.05.95 1.9.85h-.1" transform="matrix(2.0124 0 0 2 72.133 27)"/><path d="M1.35 0h.2l.55.1.45.35c.3.3.45.633.45 1L2.55 2.6c-.3.267-.633.4-1 .4l-.8-.2-.25-.2-.45-.7v-.15L0 1.45v-.1c.033-.333.2-.633.5-.9l.25-.2C.917.117 1.1.033 1.3 0h.05m.45.85L1.55.8C1.317.767 1.133.833 1 1c-.133.1-.2.25-.2.45v.15l.15.45H1l.05.05.2.1.3.05.55-.2.15-.6-.05-.3L2.1 1 2.05.95 1.9.85h-.1" transform="matrix(2.0124 0 0 2 105.974 27)"/></g><g id="gikopoipoi_eyes_closed" style="display:none"><path d="M107.46 30.1h6.3" style="fill:none;fill-rule:nonzero;stroke:#000;stroke-width:3px"/><path d="M-.05 1.55H3.1" style="fill:none;fill-rule:nonzero;stroke:#000;stroke-width:1.5px" transform="matrix(2 0 0 2 73.719 27)"/></g></svg>

<svg height="184" width="160" xmlns="http://www.w3.org/2000/svg">
    <g id="c" transform="matrix(2,0,0,2,36.241,0)">
        <g transform="matrix(1,0,0,1,21.55,71)">
            <path d="M0.4,-60L4.3,-60L5.5,-59.45L9.4,-68.05L13.25,-59.45L14.5,-60L17.65,-56.95L18.8,-55.9L18.35,-55.45L18.45,-55.35C19.85,-53.983 20.633,-52.467 20.8,-50.8L20.8,-50.2C20.8,-49.1 20.533,-48.067 20,-47.1L19.75,-46.65L18.35,-44.95L18.5,-44.8L18.2,-44.55L14.95,-43.65L14.95,-38.95L11.7,-38.25L8.6,-37.35L9.25,-35.75L12.55,-37L15.55,-37.6C16.583,-37.6 17.3,-37.4 17.7,-37C18.233,-36.467 18.5,-35.8 18.5,-35C18.5,-34.267 18.25,-33.65 17.75,-33.15C17.05,-32.45 15.683,-32.033 13.65,-31.9L12.4,-31.85L12.75,-30.35L14.25,-30.4L14.2,-27.65L12.7,-26.4L12.7,-14.15L11.85,-9.55L10.35,-9.55L10.35,-3C10.35,-2.533 10.2,-2.15 9.9,-1.85C9.533,-1.483 9,-1.3 8.3,-1.3C7.533,-1.3 6.983,-1.483 6.65,-1.85C6.35,-2.15 6.217,-2.533 6.25,-3L6.25,-9.55L4.65,-9.55L2.3,-13.05L0.55,-13.05L-3,-9.55L-3,-3C-3,-2.533 -3.15,-2.15 -3.45,-1.85C-3.817,-1.483 -4.35,-1.3 -5.05,-1.3C-5.783,-1.3 -6.333,-1.483 -6.7,-1.85C-7,-2.15 -7.133,-2.533 -7.1,-3L-7.1,-9.55L-8.65,-9.55L-10.35,-10.65L-12.1,-14.55L-12.1,-18.45L-11.65,-18.85C-11.15,-19.25 -10.7,-19.767 -10.3,-20.4L-11.55,-21.4L-12.25,-20.45L-11.85,-31.4L-10.1,-44.2L-9.7,-43.85L-8.95,-44.55L-9.95,-45.65C-10.983,-46.917 -11.483,-48.3 -11.45,-49.8L-11.4,-50.8C-11.167,-52.333 -10.35,-53.75 -8.95,-55.05L-9.7,-55.8L-9.2,-59.75L-8.55,-59.45L-4.7,-68.05L-0.85,-59.45L0.4,-60M10.5,-45.3L10.5,-43.4L11.8,-43.4L11.8,-46.65L10.65,-46.65L10.65,-56.1L4.45,-56.1L4.45,-52.25L4.4,-51.15L3.95,-48.7L2.95,-46.65L2,-46.65L2,-43.35L3.35,-43.35L3.35,-45.3L10.5,-45.3M4.45,-46.65L4.95,-47.55L5.85,-51.1L5.85,-51.15L5.9,-51.5L5.9,-54.75L9.3,-54.75L9.3,-46.65L4.45,-46.65M18.75,-55.85L17.65,-56.95L18.75,-55.85M5.5,-37.95C4.8,-38.65 3.717,-39 2.25,-39L-1.75,-38.25L-4.85,-37.35L-4.2,-35.75L-0.9,-37L2.1,-37.6C3.133,-37.6 3.85,-37.4 4.25,-37C4.783,-36.467 5.05,-35.8 5.05,-35C5.05,-34.267 4.8,-33.65 4.3,-33.15C3.6,-32.45 2.25,-32.033 0.25,-31.9L-1.05,-31.85L-0.7,-30.35C1.933,-30.383 3.9,-30.9 5.2,-31.9L5.65,-32.25C6.317,-32.917 6.65,-33.867 6.65,-35.1C6.617,-36.3 6.233,-37.25 5.5,-37.95M-7.15,-43.6L-6.4,-45.15L-6.4,-46.5L-7.9,-46.5L-7.9,-45.05L-7.35,-45.05L-7.9,-43.6L-7.15,-43.6M-5,-45.05L-4.45,-45.05L-5,-43.6L-4.25,-43.6L-3.5,-45.15L-3.5,-46.5L-5,-46.5L-5,-45.05" style="fill:white;"/>
        </g>
        <g transform="matrix(1,0,0,1,21.55,71)">
            <path d="M4.3,-60L9.4,-71L14.5,-60L13.25,-59.45L9.4,-68.05L5.5,-59.45L4.3,-60M18.8,-55.9L19.05,-56.2C20.75,-54.633 21.683,-52.833 21.85,-50.8L21.85,-50.2C21.85,-48.933 21.55,-47.75 20.95,-46.65C20.483,-45.817 19.85,-45.017 19.05,-44.25L18.35,-44.95L19.75,-46.65L20,-47.1C20.533,-48.067 20.8,-49.1 20.8,-50.2L20.8,-50.8C20.633,-52.467 19.85,-53.983 18.45,-55.35L18.35,-55.45L18.8,-55.9M14.95,-38.95L15.7,-39C17.167,-39 18.25,-38.65 18.95,-37.95C19.683,-37.25 20.05,-36.3 20.05,-35.1C20.05,-33.867 19.717,-32.917 19.05,-32.25L18.65,-31.9C17.617,-31.1 16.15,-30.6 14.25,-30.4L12.75,-30.35L12.4,-31.85L13.65,-31.9C15.683,-32.033 17.05,-32.45 17.75,-33.15C18.25,-33.65 18.5,-34.267 18.5,-35C18.5,-35.8 18.233,-36.467 17.7,-37C17.3,-37.4 16.583,-37.6 15.55,-37.6L12.55,-37L9.25,-35.75L8.6,-37.35L11.7,-38.25L14.95,-38.95M11.85,-9.55L11.85,-2.95C11.85,-2.117 11.583,-1.433 11.05,-0.9C10.45,-0.3 9.533,-0 8.3,-0C7,-0 6.05,-0.3 5.45,-0.9C4.917,-1.433 4.65,-2.117 4.65,-2.95L4.65,-9.55L6.25,-9.55L6.25,-3C6.217,-2.533 6.35,-2.15 6.65,-1.85C6.983,-1.483 7.533,-1.3 8.3,-1.3C9,-1.3 9.533,-1.483 9.9,-1.85C10.2,-2.15 10.35,-2.533 10.35,-3L10.35,-9.55L11.85,-9.55M-3,-9.55L-1.5,-9.55L-1.5,-2.95C-1.5,-2.117 -1.767,-1.433 -2.3,-0.9C-2.9,-0.3 -3.817,-0 -5.05,-0C-6.317,-0 -7.25,-0.3 -7.85,-0.9C-8.417,-1.433 -8.683,-2.117 -8.65,-2.95L-8.65,-9.55L-7.1,-9.55L-7.1,-3C-7.133,-2.533 -7,-2.15 -6.7,-1.85C-6.333,-1.483 -5.783,-1.3 -5.05,-1.3C-4.35,-1.3 -3.817,-1.483 -3.45,-1.85C-3.15,-2.15 -3,-2.533 -3,-3L-3,-9.55M-12.1,-18.45C-12.567,-18.15 -13.1,-18 -13.7,-18C-14.367,-18 -15.267,-18.367 -16.4,-19.1L-18.3,-19.75C-18.867,-19.75 -19.3,-19.567 -19.6,-19.2L-20.2,-18.25L-21.55,-19L-20.35,-20.65C-19.783,-21.183 -19.133,-21.45 -18.4,-21.45C-17.667,-21.45 -16.9,-21.183 -16.1,-20.65C-15,-20.083 -14.15,-19.8 -13.55,-19.8C-13.15,-19.8 -12.717,-20.017 -12.25,-20.45L-11.55,-21.4L-10.3,-20.4C-10.7,-19.767 -11.15,-19.25 -11.65,-18.85L-12.1,-18.45M-10.1,-44.2L-10.7,-44.9C-11.933,-46.367 -12.533,-48 -12.5,-49.8L-12.45,-50.8C-12.217,-52.667 -11.3,-54.333 -9.7,-55.8L-8.95,-55.05C-10.35,-53.75 -11.167,-52.333 -11.4,-50.8L-11.45,-49.8C-11.483,-48.3 -10.983,-46.917 -9.95,-45.65L-8.95,-44.55L-9.7,-43.85L-10.1,-44.2M-9.2,-59.75L-9.75,-60L-4.7,-71L0.4,-60L-0.85,-59.45L-4.7,-68.05L-8.55,-59.45L-9.2,-59.75M2,-43.4L2,-46.65L2.95,-46.65L3.95,-48.7L4.4,-51.15L4.45,-52.25L4.45,-56.1L10.65,-56.1L10.65,-46.65L11.8,-46.65L11.8,-43.4L10.5,-43.4L10.5,-45.35L3.35,-45.35L3.35,-43.4L2,-43.4M9.3,-54.75L9.3,-54.8L5.85,-54.8L5.85,-51.55L5.8,-51.2L5.8,-51.15L4.9,-47.6L4.4,-46.7L4.35,-46.65L9.3,-46.65L9.3,-54.75M5.5,-37.95C6.233,-37.25 6.617,-36.3 6.65,-35.1C6.65,-33.867 6.317,-32.917 5.65,-32.25L5.2,-31.9C3.9,-30.9 1.933,-30.383 -0.7,-30.35L-1.05,-31.85L0.25,-31.9C2.25,-32.033 3.6,-32.45 4.3,-33.15C4.8,-33.65 5.05,-34.267 5.05,-35C5.05,-35.8 4.783,-36.467 4.25,-37C3.85,-37.4 3.133,-37.6 2.1,-37.6L-0.9,-37L-4.2,-35.75L-4.85,-37.35L-1.75,-38.25L2.25,-39C3.717,-39 4.8,-38.65 5.5,-37.95M-5,-45.05L-5,-46.5L-3.5,-46.5L-3.5,-45.15L-4.25,-43.6L-5,-43.6L-4.45,-45.05L-5,-45.05M-7.15,-43.6L-7.9,-43.6L-7.35,-45.05L-7.9,-45.05L-7.9,-46.5L-6.4,-46.5L-6.4,-45.15L-7.15,-43.6"/>
        </g>
        <g transform="matrix(1,0,0,1,21.55,71)">
            <path d="M0.4,-60L4.3,-60M12.7,-26.4L12.7,-16.95M12.7,-16.95L12.7,-14.15M17.65,-56.95L18.75,-55.85" style="fill:none;fill-rule:nonzero;stroke:black;stroke-width:1px;"/>
        </g>
    </g>
    <path d="M57.264,65.446L69.655,55.627L78.809,55.936C91.801,69.002 96.631,68.046 103.183,56.434L108.257,57.409L109.452,65.742C109.05,65.176 107.501,65.905 107.268,65.404C104.718,59.917 102.381,59.93 100.076,67.675C98.566,74.321 99.482,83.784 104.598,84.581C106.134,83.886 106.986,82.167 107.295,79.632C107.381,80.997 109.089,79.104 109.191,80.398C109.522,84.638 108.275,91.734 108.343,95.348L54.277,94.615C53.588,81.867 54.041,78.194 57.264,65.446ZM76.438,60.038C71.551,60.038 67.584,65.414 67.584,72.035C67.584,78.657 71.551,84.032 76.438,84.032C81.324,84.032 85.291,78.657 85.291,72.035C85.291,65.414 81.324,60.038 76.438,60.038Z" style="fill:rgb(199,199,199);stroke:black;stroke-width:2px;stroke-linecap:butt;stroke-miterlimit:1.5;"/>
    <g transform="matrix(1,0,0,1,-0.908795,3.63518)">
        <path d="M91.702,66.897L95.036,67.058L96.225,69.961L95.769,76.069L93.15,77.431L95.325,79.77L95.182,86.842L93.095,88.524L90.111,88.328L88.867,85.765L89.063,79.632L92.779,77.431L90.169,75.148L90.006,68.735L91.702,66.897Z" style="fill:none;stroke:rgb(255,219,105);stroke-width:2.5px;stroke-linecap:butt;stroke-miterlimit:1.5;"/>
    </g>
    <g transform="matrix(-1.43518,0,0,1.43518,2318.44,-629.484)">
        <g transform="matrix(0.698409,0,0,0.698409,494.442,156.333)">
            <circle cx="1505.03" cy="474.652" r="16.705" style="fill:rgb(176,93,2);stroke:black;stroke-width:1px;stroke-miterlimit:1.5;"/>
        </g>
        <path d="M1536.52,481.049C1534.87,485.296 1545.02,495.015 1556.46,492.015" style="fill:none;stroke:black;stroke-width:0.7px;stroke-miterlimit:1.5;"/>
        <path d="M1549.1,476.555C1554.96,486.653 1550.71,504.559 1540.24,498.214C1536.08,496.999 1532.07,487.834 1534.34,486.215C1535.69,494.918 1546.81,501.897 1548.82,489.461C1549.7,484.064 1535.01,479.896 1542.13,476.509C1544.51,475.586 1546.82,475.769 1549.1,476.555Z" style="fill:none;stroke:black;stroke-width:0.7px;stroke-miterlimit:1.5;"/>
        <path d="M1552.73,496.807C1553.06,491.785 1553.3,490.92 1556.46,485.641" style="fill:none;stroke:black;stroke-width:0.7px;stroke-miterlimit:1.5;"/>
    </g>
    <path d="M70.252,68.803C74.776,66.635 79.3,65.489 83.824,65.277C87.664,65.68 89.155,66.683 90.142,68.417C91.304,70.458 91.446,73.471 89.168,77.117C85.773,78.675 81.98,79.436 77.747,79.317" style="fill:white;stroke:black;stroke-width:3px;stroke-linecap:butt;stroke-miterlimit:1.5;"/>
    <g id="gikopoipoi_eyes_open" transform="matrix(2.0024,0,0,2,73.7429,27)">
        <g id="b" transform="matrix(1.005,0,0,1,-0.804,0)">
            <path d="M1.35,0L1.55,0L2.1,0.1L2.55,0.45C2.85,0.75 3,1.083 3,1.45L2.55,2.6C2.25,2.867 1.917,3 1.55,3L0.75,2.8L0.5,2.6L0.05,1.9L0.05,1.75L0,1.45L0,1.35C0.033,1.017 0.2,0.717 0.5,0.45L0.75,0.25C0.917,0.117 1.1,0.033 1.3,0L1.35,0M1.8,0.85L1.55,0.8C1.317,0.767 1.133,0.833 1,1C0.867,1.1 0.8,1.25 0.8,1.45L0.8,1.6L0.95,2.05L1,2.05L1.05,2.1L1.25,2.2L1.55,2.25L2.1,2.05L2.25,1.45L2.2,1.15L2.1,1L2.05,0.95L1.9,0.85L1.8,0.85"/>
        </g>
        <g id="b" transform="matrix(1.005,0,0,1,16.096,0)">
            <path d="M1.35,0L1.55,0L2.1,0.1L2.55,0.45C2.85,0.75 3,1.083 3,1.45L2.55,2.6C2.25,2.867 1.917,3 1.55,3L0.75,2.8L0.5,2.6L0.05,1.9L0.05,1.75L0,1.45L0,1.35C0.033,1.017 0.2,0.717 0.5,0.45L0.75,0.25C0.917,0.117 1.1,0.033 1.3,0L1.35,0M1.8,0.85L1.55,0.8C1.317,0.767 1.133,0.833 1,1C0.867,1.1 0.8,1.25 0.8,1.45L0.8,1.6L0.95,2.05L1,2.05L1.05,2.1L1.25,2.2L1.55,2.25L2.1,2.05L2.25,1.45L2.2,1.15L2.1,1L2.05,0.95L1.9,0.85L1.8,0.85"/>
        </g>
    </g>
    <g id="gikopoipoi_eyes_closed" style="display:none">
        <path d="M107.46,30.1L113.76,30.1" style="fill:none;fill-rule:nonzero;stroke:black;stroke-width:3px;"/>
        <g transform="matrix(2,0,0,2,73.719,27)">
            <path d="M-0.05,1.55L3.1,1.55" style="fill:none;fill-rule:nonzero;stroke:black;stroke-width:1.5px;"/>
        </g>
    </g>
</svg>
